resources/haticons/SVG/shop_two.svg

<!-- Generated by IcoMoon.io -->
<svg version="1.1" xmlns="http://www.w3.org/2000/svg" width="24" height="24" viewBox="0 0 24 24">
<title>shop_two</title>
<path d="M12 15l5.484-3.984-5.484-3v6.984zM12 3v2.016h3.984v-2.016h-3.984zM18 5.016h5.016v10.969q0 0.844-0.586 1.43t-1.43 0.586h-14.016q-0.844 0-1.406-0.586t-0.563-1.43v-10.969h4.969v-2.016q0-0.844 0.586-1.43t1.43-0.586h3.984q0.844 0 1.43 0.586t0.586 1.43v2.016zM3 9v11.016h15.984q0 0.844-0.563 1.406t-1.406 0.563h-14.016q-0.844 0-1.43-0.563t-0.586-1.406v-11.016h2.016z"></path>
</svg>

<svg xmlns="http://www.w3.org/2000/svg" width="24" height="24"><path d="M12 15l5.484-3.984-5.484-3V15zm0-12v2.016h3.984V3H12zm6 2.016h5.016v10.969q0 .844-.586 1.43t-1.43.586H6.984q-.844 0-1.406-.586t-.563-1.43V5.016h4.969V3q0-.844.586-1.43T12 .984h3.984q.844 0 1.43.586T18 3v2.016zM3 9v11.016h15.984q0 .844-.563 1.406t-1.406.563H2.999q-.844 0-1.43-.563t-.586-1.406V9h2.016z"/></svg>
